X:143
T:Old Sugar Shack Jig
R:jig
C:Bruce Osborne - Nov. 2002
Z:abc by bosborne@kos.net
M:6/8
L:1/8
K:Amaj
A/B/|cAF ECD|ECD EAc|BAB cAE|FGF F2 A/B/|\
cAF ECD|ECD EAc|BAB cAF|EFG A2:|
|:c/d/|ecA BAB|cAF ECD|ECD EAc|ecA B2 c/d/|\
ecA BAB|cAF ECD|ECD EAc|BAB A2:|
